X: 5675
T: Byres Road, The
R: reel
M: 4/4
K: Gmajor
G,2|G,2 B,D ECG,E|DG,B,D GBdg|edce dGBd|cBAG (3FGA DF|
G2 DG ECG,E|DG,B,D GBdg|edce dGBd|cAFA G2:|
G2|(3FGA DF ADFA|(3Bcd GB dGBd|(3^cde Ac egfe|ed^ce d2
ef|gGgf edcB|AEAG GFED|G2 DG ECG,E|DGFA G2:|

